X:5
T:Denis Murphy's
Z: id:dc-slide-8
M:6/8
L:1/8
K:D Major
dcB|A2D FED|F2A A2f|g2e f2d|e2d Bcd|!
A2D FED|F2A A2f|a2f efe|d3:|!
d2A|d2e f3|gfe f3|gfe f2d|e2d Bcd|!
d2e f3|gfe f2g|a2f efe|d3:|!

